Unicodia/Resources/Scripts/30000.svg

<?xml version="1.0" encoding="UTF-8" standalone="no"?>
<!-- Created with Inkscape (http://www.inkscape.org/) -->

<svg
   width="16"
   height="16"
   viewBox="0 0 16 16"
   version="1.1"
   id="svg5"
   inkscape:version="1.2.2 (732a01da63, 2022-12-09)"
   sodipodi:docname="30000.svg"
   inkscape:export-filename="..\0000.png"
   inkscape:export-xdpi="96"
   inkscape:export-ydpi="96"
   xmlns:inkscape="http://www.inkscape.org/namespaces/inkscape"
   xmlns:sodipodi="http://sodipodi.sourceforge.net/DTD/sodipodi-0.dtd"
   xmlns="http://www.w3.org/2000/svg"
   xmlns:svg="http://www.w3.org/2000/svg">
  <sodipodi:namedview
     id="namedview7"
     pagecolor="#ffffff"
     bordercolor="#666666"
     borderopacity="1.0"
     inkscape:pageshadow="2"
     inkscape:pageopacity="0"
     inkscape:pagecheckerboard="0"
     inkscape:document-units="px"
     showgrid="true"
     width="16mm"
     units="px"
     inkscape:zoom="33.322407"
     inkscape:cx="1.845605"
     inkscape:cy="8.7928822"
     inkscape:window-width="1680"
     inkscape:window-height="998"
     inkscape:window-x="-8"
     inkscape:window-y="-8"
     inkscape:window-maximized="1"
     inkscape:current-layer="layer1"
     showguides="true"
     inkscape:guide-bbox="true"
     inkscape:snap-bbox="true"
     inkscape:bbox-paths="true"
     inkscape:bbox-nodes="true"
     inkscape:snap-global="true"
     inkscape:showpageshadow="2"
     inkscape:deskcolor="#ffffff">
    <inkscape:grid
       type="xygrid"
       id="grid828"
       originx="0"
       originy="0" />
  </sodipodi:namedview>
  <defs
     id="defs2" />
  <g
     inkscape:label="Layer 1"
     inkscape:groupmode="layer"
     id="layer1">
    <rect
       style="opacity:1;fill:#fff0f5;stroke:none;stroke-width:4.4376;stroke-linejoin:bevel;stop-color:#000000;fill-opacity:1"
       id="rect691"
       width="16"
       height="16"
       x="0"
       y="0" />
    <path
       d="M 7.2213033,6.7907712 H 3.9211901 c -0.010168,0.4066493 -0.03559,0.6404726 -0.076265,0.70147 C 3.4890217,7.7667295 3.2805641,7.9090567 3.2195521,7.919223 3.1382023,7.9090562 3.1026125,7.8073943 3.1127811,7.6142359 3.153456,6.9940958 3.178877,6.3688725 3.1890462,5.7385661 V 4.2136312 C 3.178878,3.8476469 3.153456,3.4308314 3.1127811,2.9631847 3.0924437,2.84119 3.1026129,2.7751095 3.1432867,2.7649432 c 0.030507,-0.010166 0.08135,0.020333 0.15253,0.091496 0.1220239,0.1321611 0.3050599,0.2897377 0.5491078,0.4727299 h 6.8377495 c 0.122024,0 0.218626,-0.035582 0.289807,-0.1067454 l 0.381326,-0.3964831 c 0.05084,-0.071163 0.122024,-0.076247 0.213542,-0.015249 0.315228,0.2338233 0.584698,0.4473142 0.808408,0.6404726 0.07118,0.08133 0.06101,0.1270779 -0.0305,0.1372442 -0.172868,0.030498 -0.30506,0.091496 -0.396578,0.1829921 -0.08135,0.091496 -0.122024,0.1880753 -0.122024,0.2897377 v 0.060998 c 0.01017,1.097953 0.05084,2.1501581 0.122024,3.1566151 0,0.132161 -0.05084,0.2287402 -0.15253,0.2897376 -0.45759,0.2643217 -0.706723,0.3913995 -0.747397,0.3812332 -0.04068,-0.020333 -0.05593,-0.1118285 -0.04576,-0.2744883 0.02034,-0.2541558 0.03559,-0.5489765 0.04576,-0.8844621 H 7.9534471 v 2.3866374 h 3.9450599 c 0.09152,0 0.142361,-0.00508 0.15253,-0.015249 l 0.381325,-0.5032287 c 0.02034,-0.040665 0.05084,-0.060998 0.09152,-0.060998 0.04068,0 0.08135,0.020333 0.122024,0.060998 0.315228,0.2541558 0.594867,0.5083116 0.838914,0.7624674 0.07118,0.08133 0.02542,0.1524936 -0.137276,0.2134909 -0.244048,0.1016624 -0.381325,0.172826 -0.411831,0.2134909 -0.03051,0.060998 -0.04576,0.127078 -0.04576,0.1982411 v 2.622888 c 0,0.345652 -0.09152,0.645556 -0.274554,0.899711 -0.183036,0.254157 -0.411831,0.432065 -0.686385,0.533727 -0.09152,0.04066 -0.157614,0.01525 -0.198289,-0.07624 -0.09152,-0.213494 -0.249132,-0.401571 -0.472843,-0.564231 -0.223711,-0.162659 -0.584698,-0.264321 -1.082963,-0.304987 -0.122024,-0.02034 -0.1779512,-0.08133 -0.167783,-0.182992 0.01017,-0.0915 0.08135,-0.132161 0.213542,-0.121995 1.159228,0.05083 1.769348,0.061 1.83036,0.0305 0.07118,-0.04066 0.106771,-0.16774 0.106771,-0.381234 V 9.6501384 H 7.9534471 v 1.5476946 c 0,1.199615 0.020337,2.200989 0.061012,3.004122 -0.010168,0.0915 -0.2440478,0.289737 -0.7016378,0.594724 -0.1423614,0.0915 -0.2084577,0.0305 -0.198289,-0.182992 0.071181,-1.352109 0.106771,-2.490727 0.106771,-3.415854 V 9.6501384 H 2.8894528 v 1.9671656 c -0.010168,0.579475 -0.010168,1.250447 0,2.012914 -0.010168,0.152494 -0.2033732,0.355818 -0.5796139,0.609974 -0.08135,0.04066 -0.1423613,0.06099 -0.1830359,0.06099 -0.061012,-0.01017 -0.086433,-0.111828 -0.076265,-0.304988 0.040675,-1.016622 0.076265,-1.809589 0.1067709,-2.378898 V 10.061871 C 2.1471406,9.7365514 2.1115504,9.3400684 2.0505379,8.8724217 2.0302004,8.7707593 2.035285,8.714845 2.0657907,8.7046788 c 0.010168,0 0.2135418,0.1575767 0.6101198,0.4727298 H 7.2213033 Z M 3.9211901,6.3180413 H 11.064 c 0.01017,-0.3558181 0.02034,-0.9403764 0.03051,-1.753675 V 3.8018989 H 3.9211901 Z M 12.727635,1.224759 c 0.122024,0 0.203373,-0.020332 0.244048,-0.060998 0.05084,-0.050831 0.122024,-0.127078 0.213542,-0.22874022 l 0.396578,-0.56422559 c 0.07118,-0.0914961 0.152529,-0.0914961 0.244047,0 0.315229,0.28465451 0.625373,0.58455837 0.930433,0.89971161 0.101687,0.1016623 0.147446,0.1982415 0.137277,0.2897375 -0.02034,0.08133 -0.0966,0.1270779 -0.228795,0.1372442 H 2.2030676 c -0.2745539,0 -0.5846981,0.035582 -0.9304327,0.1067455 -0.050843,0.010166 -0.08135,0 -0.091518,-0.030498 C 1.0489244,1.5704113 0.9319848,1.3874191 0.83029813,1.2247594 0.76928614,1.1230971 0.80487649,1.0875153 0.9370691,1.118014 c 0.6202885,0.060998 0.9660231,0.09658 1.0372037,0.1067454 z"
       id="path109241"
       sodipodi:nodetypes="cccccccccccsccccccsccccccccsccsccccsssccsccccsccscccsccccccccccccccccccccssccccccscccccs"
       style="font-weight:bold;font-size:15.6172px;line-height:1.25;font-family:'BabelStone Han';-inkscape-font-specification:'BabelStone Han Bold';text-align:center;letter-spacing:0px;word-spacing:0px;text-anchor:middle;fill:#5c3566;stroke:#5c3566;stroke-width:0.2" />
  </g>
</svg>

<svg height="16" viewBox="0 0 16 16" width="16" xmlns="http://www.w3.org/2000/svg"><path d="m0 0h16v16h-16z" fill="#fff0f5"/><path d="m7.22 6.79h-3.3c-.01.41-.04.64-.08.7-.35.28-.56.42-.62.43-.08-.01-.12-.11-.11-.31.04-.62.07-1.24.08-1.87v-1.53c-.01-.36-.04-.78-.08-1.25-.02-.12-.01-.18.03-.2.03-.01.08.02.15.09.12.13.31.29.55.47h6.84c.12 0 .22-.04.29-.11l.38-.4c.05-.07.12-.08.21-.02.32.23.58.45.81.64.07.08.06.13-.03.14-.17.03-.31.09-.4.18-.08.09-.12.19-.12.29v.06c.01 1.1.05 2.15.12 3.16 0 .13-.05.23-.15.29-.46.26-.71.39-.75.38-.04-.02-.06-.11-.05-.27.02-.25.04-.55.05-.88h-3.09v2.39h3.95c.09 0 .14-.01.15-.02l.38-.5c.02-.04.05-.06.09-.06s.08.02.12.06c.32.25.59.51.84.76.07.08.03.15-.14.21-.24.1-.38.17-.41.21-.03.06-.05.13-.05.2v2.62c0 .35-.09.65-.27.9s-.41.43-.69.53c-.09.04-.16.02-.2-.08-.09-.21-.25-.4-.47-.56s-.58-.26-1.08-.3c-.12-.02-.18-.08-.17-.18.01-.09.08-.13.21-.12 1.16.05 1.77.06 1.83.03.07-.04.11-.17.11-.38v-2.84h-4.2v1.55c0 1.2.02 2.2.06 3-.01.09-.24.29-.7.59-.14.09-.21.03-.2-.18.07-1.35.11-2.49.11-3.42v-1.54h-4.33v1.97c-.01.58-.01 1.25 0 2.01-.01.15-.2.36-.58.61-.08.04-.14.06-.18.06-.06-.01-.09-.11-.08-.3.04-1.02.08-1.81.11-2.38v-1.56c-.01-.32-.05-.72-.11-1.19-.02-.1-.01-.16.02-.17.01 0 .21.16.61.47h4.54zm-3.3-.47h7.14c.01-.36.02-.94.03-1.75v-.77h-7.17zm8.81-5.1c.12 0 .2-.02.24-.06.05-.05.12-.13.21-.23l.4-.56c.07-.09.15-.09.24 0 .32.28.63.58.93.9.1.1.15.2.14.29-.02.08-.1.13-.23.14h-12.46c-.27 0-.58.04-.93.11-.05.01-.08 0-.09-.03-.13-.21-.25-.39-.35-.56-.06-.1-.03-.13.11-.1.62.06.97.1 1.04.11z" fill="#5c3566" stroke="#5c3566" stroke-width=".2"/></svg>
